X:1
T:Elven, LM
T:Elven, LM
T:Felix Mendelssohn, arr. by William Dressler
T:Public Domain Courtesy of the Cyber Hymnal™
C:Felix Mendelssohn, arr. by William Dressler
Z:Public Domain
Z:Courtesy of the Cyber Hymnal™
%%score ( 1 2 ) ( 3 4 )
L:1/8
Q:1/4=115
M:3/4
K:C
V:1 treble 
V:2 treble 
V:3 bass 
V:4 bass 
V:1
 [CE]2 [EA]2 [EB]2 | [Ec]4 [EB]2 | [Dd]4 (A^G) | [EB]6 x4 | [Ee]2 [Ge]2 [Ge]2 | (e3 d) (cB) | %6
 (A2 c2) z B | [EB]6 | [CE]2 [EA]2 [EB]2 | [Ec]4 [EB]2 | [Dd]4 (A^G) | B6 | [Ge]2 [Ge]2 [Ge]2 | %13
 (e3 d) (cB) | (A2 c2) [DB]2 | [CA]6 |] x6 |] %17
V:2
 x6 | x6 | x4 D2 | x10 | x6 | F4 F2 | E4 ^F2 | x6 | x6 | x6 | x4 D2 | (D2 E2 F2) | x6 | F4 F2 | %14
 E4 x2 | x6 |] x6 |] %17
V:3
 [A,,A,]2 [C,A,]2 [E,^G,]2 | A,4 [G,B,]2 | [F,A,]4 [F,A,]2 | A,2 z2 x6 | [C,A,]2 [C,A,]2 [^C,A,]2 | %5
 [D,A,]4 (A,D) | (C2 A,2) [^D,A,]2 | (A,2 ^G,4) | [A,,A,]2 [C,A,]2 [E,^G,]2 | A,4 [G,B,]2 | %10
 [F,A,]4 [F,A,]2 | ([F,A,]2 [E,^G,]2 [D,=G,]2) | [C,G,]2 [C,C]2 [C,_B,]2 | [F,A,]4 (A,B,) | %14
 (C2 A,2) x2 | [F,^G,]2 x4 |] [A,,A,]6 |] %17
V:4
 x6 | A,4 x2 | x6 | E,4 (^G,4 D,2) | x6 | x4 D,2 | E,4 x2 | E,4 x2 | x6 | A,4 x2 | x6 | x6 | x6 | %13
 x4 D,2 | E,4 x2 | x6 |] x6 |] %17

